svg/blobs-icons/no-decorations/postage-stamp.svg

<svg xmlns="http://www.w3.org/2000/svg" xmlns:xlink="http://www.w3.org/1999/xlink" preserveAspectRatio="xMidYMid" width="217" height="196" viewBox="0 0 217 196"><defs><style>.cls-3{fill:#ff3a2f}.cls-4{fill:#fff}.cls-5{fill:#010101;opacity:.35}.cls-6{fill:#142a3b}.cls-12{fill:#fbb713}</style></defs><g id="group-76svg"><path d="M201.976 35.956C201.976 29.34 196.611 23.975 189.994 23.975 196.611 23.975 201.976 18.61 201.976 11.992 201.976 5.374 196.611.009 189.994.009 185.364.009 181.356 2.639 179.359 6.482 177.19 3.422 173.627 1.419 169.59 1.419 165.782 1.419 162.396 3.201 160.202 5.97 158.124 2.409 154.273.009 149.853.009 143.237.009 137.872 5.374 137.872 11.992H137.8C137.8 5.374 132.435.009 125.818.009c-5.206.0-9.625 3.328-11.277 7.966C112.888 3.337 108.47.009 103.264.009c-6.618.0-11.983 5.365-11.983 11.983H90.612C90.612 5.374 85.247.009 78.63.009c-6.618.0-11.982 5.365-11.982 11.983C66.648 5.374 61.283.009 54.666.009c-5.206.0-9.624 3.328-11.277 7.966C41.735 3.337 37.317.009 32.111.009c-6.617.0-11.982 5.365-11.982 11.983.0 6.618 5.365 11.983 11.982 11.983-6.617.0-11.982 5.365-11.982 11.981.0 6.619 5.365 11.984 11.982 11.984v1.481c-6.617.0-11.982 5.364-11.982 11.982s5.365 11.982 11.982 11.982c-6.617.0-11.982 5.365-11.982 11.982.0 6.619 5.365 11.983 11.982 11.983V98.019c-6.617.0-11.982 5.365-11.982 11.983C20.129 116.62 25.494 121.985 32.111 121.985c-6.617.0-11.982 5.364-11.982 11.982C20.129 140.584 25.494 145.949 32.111 145.949 25.494 145.949 20.129 151.315 20.129 157.932 20.129 164.549 25.494 169.914 32.111 169.914V170.582C25.494 170.582 20.129 175.948 20.129 182.565c0 6.618 5.365 11.983 11.982 11.983C37.45 194.548 41.969 191.055 43.517 186.23 45.265 190.684 49.592 193.843 54.666 193.843 61.045 193.843 66.245 188.853 66.612 182.565H66.683C67.05 188.853 72.251 193.843 78.63 193.843 85.01 193.843 90.21 188.853 90.577 182.565H91.317C91.683 188.853 96.884 193.843 103.264 193.843 108.47 193.843 112.888 190.517 114.541 185.878 116.193 190.517 120.612 193.843 125.818 193.843 132.198 193.843 137.397 188.853 137.764 182.565H137.907C138.274 188.853 143.475 193.843 149.853 193.843 153.662 193.843 157.047 192.062 159.242 189.292 161.318 192.853 165.17 195.253 169.59 195.253 174.056 195.253 177.946 192.803 180.006 189.179 182.15 192.413 185.822 194.548 189.994 194.548 196.611 194.548 201.976 189.183 201.976 182.565 201.976 175.948 196.611 170.582 189.994 170.582V169.914C196.611 169.914 201.976 164.549 201.976 157.932 201.976 151.315 196.611 145.949 189.994 145.949 196.611 145.949 201.976 140.584 201.976 133.967 201.976 127.349 196.611 121.985 189.994 121.985c6.61699999999999.0 11.982-5.365 11.982-11.983C201.976 103.384 196.611 98.019 189.994 98.019V97.35C196.611 97.35 201.976 91.986 201.976 85.367 201.976 78.75 196.611 73.385 189.994 73.385 196.611 73.385 201.976 68.021 201.976 61.403S196.611 49.421 189.994 49.421V47.94C196.611 47.94 201.976 42.575 201.976 35.956z" id="path-1" class="cls-3" fill-rule="evenodd"/><path d="M170.728 164.828s-119.351.0-119.351.0.0-134.392.0-134.392 119.351.0 119.351.0.0 134.392.0 134.392z" id="path-2" class="cls-4" fill-rule="evenodd"/><path d="M59.132 157.071s0-126.635.0-126.635-7.755.0-7.755.0.0 134.391.0 134.391 119.351.0 119.351.0.0-7.756.0-7.756-111.596.0-111.596.0z" id="path-3" class="cls-5" fill-rule="evenodd"/><path d="M89.845 144.587C83.297 135.598 85.022 107.156 94.367 87.552c0 0-19.116 2.14299999999999-18.14 28.911.0.0-16.667-36.406 11.277-43.366.0.0-8.825-23.025-30.394-13.923.0.0 17.357-21.277 42.241 3.721C101.945 55.068 100.251 43.963 100.251 43.963c10.276 5.471 12.108 15.611 12.017 22.546C121.335 64.649 137.202 68.523 141.805 86.472c0 0-17.315-13.179-30.957-5.15599999999999.0.0 24.208 7.309 25.189 32.473.0.0-10.09-13.549-20.495-16.867.843000000000004.881 1.376 2.108 1.376 3.483C116.918 103.067 114.94 105.223 112.507 105.223 111.622 105.223 110.801 104.935 110.112 104.443 110.684 105.254 111.038 106.254 111.038 107.365 111.038 110.027 109.06 112.185 106.626 112.185 104.505 112.185 102.738 110.545 102.313 108.373 101.029 118.33 100.89 134.195 109.453 146.884c0 0-15.891 2.80700000000002-19.608-2.297z" id="path-4" class="cls-6" fill-rule="evenodd"/><path d="M198.674 158.793C185.905 158.793 172.97 150.479 172.774 150.351 153.252 134.951 128.235 150.215 127.986 150.373 127.142 150.897 126.025 150.641 125.498 149.795 124.967 148.948 125.225 147.834 126.071 147.305 126.341 147.136 153.478 130.522 174.883 147.42 175.017 147.5 201.71 164.627 213.586 147.796 214.161 146.982 215.285 146.787 216.106 147.362 216.922 147.937 217.115 149.066 216.541 149.881 211.813 156.577 205.264 158.793 198.674 158.793z" id="path-5" class="cls-6" fill-rule="evenodd"/><path d="M198.674 168.575C185.905 168.576 172.97 160.262 172.774 160.133 153.252 144.733 128.235 159.999 127.986 160.154 127.142 160.679 126.025 160.423 125.498 159.577 124.967 158.731 125.225 157.617 126.071 157.087 126.341 156.918 153.478 140.304 174.883 157.203 175.017 157.283 201.71 174.409 213.586 157.579 214.161 156.764 215.285 156.567 216.106 157.144 216.922 157.72 217.115 158.848 216.541 159.663 211.813 166.36 205.264 168.574 198.674 168.575z" id="path-6" class="cls-6" fill-rule="evenodd"/><path d="M198.674 178.356C185.905 178.358 172.97 170.042 172.774 169.914 153.252 154.515 128.235 169.779 127.986 169.936 127.142 170.461 126.025 170.205 125.498 169.358 124.967 168.513 125.225 167.398 126.071 166.87 126.341 166.701 153.478 150.085 174.883 166.984 175.017 167.064 201.71 184.19 213.586 167.36 214.161 166.546 215.285 166.351 216.106 166.926 216.922 167.501 217.115 168.629 216.541 169.444 211.813 176.142 205.264 178.356 198.674 178.356z" id="path-7" class="cls-6" fill-rule="evenodd"/><path d="M35.357 173.964c-19.497.0-35.36-15.863-35.36-35.362.0-19.5 15.863-35.364 35.36-35.364 19.499.0 35.362 15.864 35.362 35.364.0 19.499-15.863 35.362-35.362 35.362zm0-67.11c-17.505.0-31.746 14.242-31.746 31.748.0 17.505 14.241 31.748 31.746 31.748 17.507.0 31.747-14.243 31.747-31.748.0-17.506-14.24-31.748-31.747-31.748z" id="path-8" class="cls-6" fill-rule="evenodd"/><path d="M35.357 165.448c-14.802.0-26.844-12.043-26.844-26.846s12.042-26.847 26.844-26.847 26.846 12.044 26.846 26.847-12.044 26.846-26.846 26.846zm0-50.078c-12.81.0-23.23 10.421-23.23 23.232.0 12.81 10.42 23.231 23.23 23.231s23.232-10.421 23.232-23.231c0-12.811-10.422-23.232-23.232-23.232z" id="path-9" class="cls-6" fill-rule="evenodd"/><path d="M159.249 50.674C159.249 55.68 155.191 59.737 150.187 59.737 145.182 59.737 141.125 55.68 141.125 50.674 141.125 45.669 145.182 41.613 150.187 41.613 155.191 41.613 159.249 45.669 159.249 50.674z" id="path-10" class="cls-12" fill-rule="evenodd"/></g></svg>

<svg xmlns="http://www.w3.org/2000/svg" xmlns:xlink="http://www.w3.org/1999/xlink" preserveAspectRatio="xMidYMid" width="217" height="196" viewBox="0 0 217 196">
  <defs>
    <style>

      .cls-3 {
        fill: #ff3a2f;
      }

      .cls-4 {
        fill: #ffffff;
      }

      .cls-5 {
        fill: #010101;
        opacity: 0.35;
      }

      .cls-6 {
        fill: #142a3b;
      }

      .cls-12 {
        fill: #fbb713;
      }
    </style>
  </defs>
  <g id="group-76svg">
    <path d="M201.976,35.956 C201.976,29.340 196.611,23.975 189.994,23.975 C196.611,23.975 201.976,18.610 201.976,11.992 C201.976,5.374 196.611,0.009 189.994,0.009 C185.364,0.009 181.356,2.639 179.359,6.482 C177.190,3.422 173.627,1.419 169.590,1.419 C165.782,1.419 162.396,3.201 160.202,5.970 C158.124,2.409 154.273,0.009 149.853,0.009 C143.237,0.009 137.872,5.374 137.872,11.992 C137.872,11.992 137.800,11.992 137.800,11.992 C137.800,5.374 132.435,0.009 125.818,0.009 C120.612,0.009 116.193,3.337 114.541,7.975 C112.888,3.337 108.470,0.009 103.264,0.009 C96.646,0.009 91.281,5.374 91.281,11.992 C91.281,11.992 90.612,11.992 90.612,11.992 C90.612,5.374 85.247,0.009 78.630,0.009 C72.012,0.009 66.648,5.374 66.648,11.992 C66.648,5.374 61.283,0.009 54.666,0.009 C49.460,0.009 45.042,3.337 43.389,7.975 C41.735,3.337 37.317,0.009 32.111,0.009 C25.494,0.009 20.129,5.374 20.129,11.992 C20.129,18.610 25.494,23.975 32.111,23.975 C25.494,23.975 20.129,29.340 20.129,35.956 C20.129,42.575 25.494,47.940 32.111,47.940 C32.111,47.940 32.111,49.421 32.111,49.421 C25.494,49.421 20.129,54.785 20.129,61.403 C20.129,68.021 25.494,73.385 32.111,73.385 C25.494,73.385 20.129,78.750 20.129,85.367 C20.129,91.986 25.494,97.350 32.111,97.350 C32.111,97.350 32.111,98.019 32.111,98.019 C25.494,98.019 20.129,103.384 20.129,110.002 C20.129,116.620 25.494,121.985 32.111,121.985 C25.494,121.985 20.129,127.349 20.129,133.967 C20.129,140.584 25.494,145.949 32.111,145.949 C25.494,145.949 20.129,151.315 20.129,157.932 C20.129,164.549 25.494,169.914 32.111,169.914 C32.111,169.914 32.111,170.582 32.111,170.582 C25.494,170.582 20.129,175.948 20.129,182.565 C20.129,189.183 25.494,194.548 32.111,194.548 C37.450,194.548 41.969,191.055 43.517,186.230 C45.265,190.684 49.592,193.843 54.666,193.843 C61.045,193.843 66.245,188.853 66.612,182.565 C66.612,182.565 66.683,182.565 66.683,182.565 C67.050,188.853 72.251,193.843 78.630,193.843 C85.010,193.843 90.210,188.853 90.577,182.565 C90.577,182.565 91.317,182.565 91.317,182.565 C91.683,188.853 96.884,193.843 103.264,193.843 C108.470,193.843 112.888,190.517 114.541,185.878 C116.193,190.517 120.612,193.843 125.818,193.843 C132.198,193.843 137.397,188.853 137.764,182.565 C137.764,182.565 137.907,182.565 137.907,182.565 C138.274,188.853 143.475,193.843 149.853,193.843 C153.662,193.843 157.047,192.062 159.242,189.292 C161.318,192.853 165.170,195.253 169.590,195.253 C174.056,195.253 177.946,192.803 180.006,189.179 C182.150,192.413 185.822,194.548 189.994,194.548 C196.611,194.548 201.976,189.183 201.976,182.565 C201.976,175.948 196.611,170.582 189.994,170.582 C189.994,170.582 189.994,169.914 189.994,169.914 C196.611,169.914 201.976,164.549 201.976,157.932 C201.976,151.315 196.611,145.949 189.994,145.949 C196.611,145.949 201.976,140.584 201.976,133.967 C201.976,127.349 196.611,121.985 189.994,121.985 C196.611,121.985 201.976,116.620 201.976,110.002 C201.976,103.384 196.611,98.019 189.994,98.019 C189.994,98.019 189.994,97.350 189.994,97.350 C196.611,97.350 201.976,91.986 201.976,85.367 C201.976,78.750 196.611,73.385 189.994,73.385 C196.611,73.385 201.976,68.021 201.976,61.403 C201.976,54.785 196.611,49.421 189.994,49.421 C189.994,49.421 189.994,47.940 189.994,47.940 C196.611,47.940 201.976,42.575 201.976,35.956 Z" id="path-1" class="cls-3" fill-rule="evenodd"/>
    <path d="M170.728,164.828 C170.728,164.828 51.377,164.828 51.377,164.828 C51.377,164.828 51.377,30.436 51.377,30.436 C51.377,30.436 170.728,30.436 170.728,30.436 C170.728,30.436 170.728,164.828 170.728,164.828 Z" id="path-2" class="cls-4" fill-rule="evenodd"/>
    <path d="M59.132,157.071 C59.132,157.071 59.132,30.436 59.132,30.436 C59.132,30.436 51.377,30.436 51.377,30.436 C51.377,30.436 51.377,164.827 51.377,164.827 C51.377,164.827 170.728,164.827 170.728,164.827 C170.728,164.827 170.728,157.071 170.728,157.071 C170.728,157.071 59.132,157.071 59.132,157.071 Z" id="path-3" class="cls-5" fill-rule="evenodd"/>
    <path d="M89.845,144.587 C83.297,135.598 85.022,107.156 94.367,87.552 C94.367,87.552 75.251,89.695 76.227,116.463 C76.227,116.463 59.560,80.057 87.504,73.097 C87.504,73.097 78.679,50.072 57.110,59.174 C57.110,59.174 74.467,37.897 99.351,62.895 C101.945,55.068 100.251,43.963 100.251,43.963 C110.527,49.434 112.359,59.574 112.268,66.509 C121.335,64.649 137.202,68.523 141.805,86.472 C141.805,86.472 124.490,73.293 110.848,81.316 C110.848,81.316 135.056,88.625 136.037,113.789 C136.037,113.789 125.947,100.240 115.542,96.922 C116.385,97.803 116.918,99.030 116.918,100.405 C116.918,103.067 114.940,105.223 112.507,105.223 C111.622,105.223 110.801,104.935 110.112,104.443 C110.684,105.254 111.038,106.254 111.038,107.365 C111.038,110.027 109.060,112.185 106.626,112.185 C104.505,112.185 102.738,110.545 102.313,108.373 C101.029,118.330 100.890,134.195 109.453,146.884 C109.453,146.884 93.562,149.691 89.845,144.587 Z" id="path-4" class="cls-6" fill-rule="evenodd"/>
    <path d="M198.674,158.793 C185.905,158.793 172.970,150.479 172.774,150.351 C153.252,134.951 128.235,150.215 127.986,150.373 C127.142,150.897 126.025,150.641 125.498,149.795 C124.967,148.948 125.225,147.834 126.071,147.305 C126.341,147.136 153.478,130.522 174.883,147.420 C175.017,147.500 201.710,164.627 213.586,147.796 C214.161,146.982 215.285,146.787 216.106,147.362 C216.922,147.937 217.115,149.066 216.541,149.881 C211.813,156.577 205.264,158.793 198.674,158.793 Z" id="path-5" class="cls-6" fill-rule="evenodd"/>
    <path d="M198.674,168.575 C185.905,168.576 172.970,160.262 172.774,160.133 C153.252,144.733 128.235,159.999 127.986,160.154 C127.142,160.679 126.025,160.423 125.498,159.577 C124.967,158.731 125.225,157.617 126.071,157.087 C126.341,156.918 153.478,140.304 174.883,157.203 C175.017,157.283 201.710,174.409 213.586,157.579 C214.161,156.764 215.285,156.567 216.106,157.144 C216.922,157.720 217.115,158.848 216.541,159.663 C211.813,166.360 205.264,168.574 198.674,168.575 Z" id="path-6" class="cls-6" fill-rule="evenodd"/>
    <path d="M198.674,178.356 C185.905,178.358 172.970,170.042 172.774,169.914 C153.252,154.515 128.235,169.779 127.986,169.936 C127.142,170.461 126.025,170.205 125.498,169.358 C124.967,168.513 125.225,167.398 126.071,166.870 C126.341,166.701 153.478,150.085 174.883,166.984 C175.017,167.064 201.710,184.190 213.586,167.360 C214.161,166.546 215.285,166.351 216.106,166.926 C216.922,167.501 217.115,168.629 216.541,169.444 C211.813,176.142 205.264,178.356 198.674,178.356 Z" id="path-7" class="cls-6" fill-rule="evenodd"/>
    <path d="M35.357,173.964 C15.860,173.964 -0.003,158.101 -0.003,138.602 C-0.003,119.102 15.860,103.238 35.357,103.238 C54.856,103.238 70.719,119.102 70.719,138.602 C70.719,158.101 54.856,173.964 35.357,173.964 ZM35.357,106.854 C17.852,106.854 3.611,121.096 3.611,138.602 C3.611,156.107 17.852,170.350 35.357,170.350 C52.864,170.350 67.104,156.107 67.104,138.602 C67.104,121.096 52.864,106.854 35.357,106.854 Z" id="path-8" class="cls-6" fill-rule="evenodd"/>
    <path d="M35.357,165.448 C20.555,165.448 8.513,153.405 8.513,138.602 C8.513,123.799 20.555,111.755 35.357,111.755 C50.159,111.755 62.203,123.799 62.203,138.602 C62.203,153.405 50.159,165.448 35.357,165.448 ZM35.357,115.370 C22.547,115.370 12.127,125.791 12.127,138.602 C12.127,151.412 22.547,161.833 35.357,161.833 C48.167,161.833 58.589,151.412 58.589,138.602 C58.589,125.791 48.167,115.370 35.357,115.370 Z" id="path-9" class="cls-6" fill-rule="evenodd"/>
    <path d="M159.249,50.674 C159.249,55.680 155.191,59.737 150.187,59.737 C145.182,59.737 141.125,55.680 141.125,50.674 C141.125,45.669 145.182,41.613 150.187,41.613 C155.191,41.613 159.249,45.669 159.249,50.674 Z" id="path-10" class="cls-12" fill-rule="evenodd"/>
  </g>
</svg>
